packages/ffe-icons/icons/filled/sm/golf_course.svg

<svg xmlns="http://www.w3.org/2000/svg" height="20" viewBox="0 -960 960 960" width="20"><path d="M756.045-154.001q-20.814 0-35.429-14.57-14.615-14.57-14.615-35.384t14.57-35.429q14.57-14.615 35.384-14.615t35.429 14.57q14.615 14.57 14.615 35.384t-14.57 35.429q-14.57 14.615-35.384 14.615Zm-372 48q-95.814 0-162.929-21.563-67.115-21.564-67.115-52.319 0-22.318 40.885-40.409 40.885-18.092 100.346-26.015v49.231q0 12.992 8.963 22.188 8.962 9.196 22.211 9.196 12.903 0 22.249-9.196 9.346-9.196 9.346-22.188v-598.923q0-18.385 15.077-27.577 15.076-9.192 31.153-.961l176.443 88.025q17.632 8.558 17.825 28.381.192 19.823-17.885 28.669l-170.615 85.308v340.385q90 5 147 25.201t57 48.389q0 31.333-68.07 52.755-68.07 21.423-161.884 21.423Z"/></svg>

<svg xmlns="http://www.w3.org/2000/svg" height="20" viewBox="0 -960 960 960" width="20"><path d="M756.05-154q-20.82 0-35.43-14.57Q706-183.14 706-203.95q0-20.82 14.57-35.43Q735.14-254 755.95-254q20.82 0 35.43 14.57Q806-224.86 806-204.05q0 20.82-14.57 35.43Q776.86-154 756.05-154Zm-372 48q-95.82 0-162.93-21.56Q154-149.13 154-179.88q0-22.32 40.89-40.41 40.88-18.09 100.34-26.02v49.23q0 13 8.96 22.19 8.97 9.2 22.22 9.2 12.9 0 22.24-9.2 9.35-9.19 9.35-22.19V-796q0-18.38 15.08-27.58 15.07-9.19 31.15-.96l176.44 88.03q17.64 8.56 17.83 28.38.19 19.82-17.89 28.67L410-594.15v340.38q90 5 147 25.2t57 48.39q0 31.33-68.07 52.76Q477.86-106 384.05-106Z"/></svg>
